X:1
T:Dance of the Swans, VI. Tempo di Valse
T:Dance of the Swans, VI. Tempo di Valse
T:Swan Lake, Piano Arrangement for 3 hands
T:Hinci
C:Hinci
%%score { ( 1 4 ) | 2 | 3 }
L:1/8
Q:1/4=186
M:3/4
K:A
V:1 treble nm="Piano" snm="Pno."
V:4 treble 
V:2 bass 
V:3 bass 
V:1
!f!"^Tempo di Valse." [cc']6 | ([Bb]2 [cc']2 [Bb]2) | [Aa]6- | [Aa]4 ([Aa]2 | [dd']4) [dd']2 | %5
 ([cc']2 [dd']2 [ee']2) | ([ee']4 [Bb]2) |!mf! [fgb][fgb] z [fgb] [fgb][fgb] | %8
 [^egc'][egc'] z [egc'] [egc'][egc'] | [efa][efa] z [efa] [efa][efa] | %10
 [^dfb][dfb] z [dfb] [dfb][dfb] | z2 !>![gb]2 z2 | !>![ca]2 z2 !>![ac']2 | z2 !>![^ac']2 z2 | %14
 !>![bd']2 z2 !>![b^d']2 | z2 !>![d'e']2 z2 |!f! [cc']6 | ([Bb]2 [cc']2 [Bb]2) | [Aa]6- | %19
 [Aa]4 ([Aa]2 | [dd']4) [dd']2 | ([cc']2 [dd']2 [ee']2) | ([ee']4 [Bb]2) | %23
!mf! [fgb][fgb] z [fgb] [fgb][fgb] | [^egc'][egc'] z [egc'] [egc'][egc'] | %25
 [efa][efa] z [efa] [efa][efa] | [^dfb][dfb] z [dfb] [dfb][dfb] | z2 !>![Bgb]2 z2 | %28
 !>![Aca]2 z2 !>![cac']2 | z2 !>![c^ac']2 z2 | !>![dbd']2 z2 !>![^db^d']2 | %31
 z2 !>![ed'e']2 !>![ec'e']2 || [ee']6 | ([^d^d']2 [ee']2 [dd']2 | %34
 [cegc']2)!mf! [gc'e'g'][gc'e'g'] z [gc'e'g'] | [g^bf'g'][gbf'g'] z [gbf'g'] [gbf'g'][gbf'g'] | %36
!ff! [ee']6 | ([^d^d']2 [ee']2 [dd']2 | [cegc']2)!mf! [egc'e'][egc'e'] z [egc'e'] | %39
 [^d=gc'^d'][dgc'd'] z [dgc'd'] [df^bd'][dfbd'] |!ff! [ee']6 | ([^d^d']2 [ee']2 [dd']2 | %42
 [cegc']2)!mf! [gc'e'g'][gc'e'g'] z [gc'e'g'] | [g^bf'g'][gbf'g'] z [gbf'g'] [gbf'g'][gbf'g'] | %44
!ff! [ee']6 | ([^d^d']2 [ee']2 [dd']2 | [cegc']2) [ee']2 [^d^d']2 | %47
 [cc']2[Q:1/4=168] [ec'e']2[Q:1/4=147] [dbd']2 |[Q:1/4=186] [cc']6 | ([Bb]2 [cc']2 [Bb]2) | %50
 [Aa]6- | [Aa]4 ([Aa]2 | [dd']4) [dd']2 | ([cc']2 [dd']2 [ee']2) | ([ee']4 [Bb]2) | %55
!mf! [fgb][fgb] z [fgb] [fgb][fgb] | [^egc'][egc'] z [egc'] [egc'][egc'] | %57
 [efa][efa] z [efa] [efa][efa] | [^dfb][dfb] z [dfb] [dfb][dfb] | z2 !>![gb]2 z2 | %60
 !>![ca]2 z2 !>![ac']2 | z2 !>![^ac']2 z2 | !>![bd']2 z2 !>![b^d']2 | z2 !>![d'e']2 z2 | %64
!f! [cc']6 | ([Bb]2 [cc']2 [Bb]2) | [Aa]6- | [Aa]4 ([Aa]2 | [dd']4) [dd']2 | %69
 ([cc']2 [dd']2 [ee']2) | ([ee']4 [Bb]2) |!mf! [fgb][fgb] z [fgb] [fgb][fgb] | %72
 [^egc'][egc'] z [egc'] [egc'][egc'] | [efa][efa] z [efa] [efa][efa] | %74
 [^dfb][dfb] z [dfb] [dfb][dfb] | z2 !>![Bgb]2 z2 | !>![Aca]2 z2 !>![cac']2 | z2 !>![c^ac']2 z2 | %78
 !>![dbd']2 z2 !>![^db^d']2 | z2 !>![ed'e']2 !>![ec'e']2 |!mf!!8va(! !>!e6 | !>!A6 | %82
 z2 [bd'g'b']2 [bd'g'b']2 | z2 [ac'e'a']2 [ac'e'a']2!8va)! |"_poco rit."[Q:1/4=176] !>![ee']6 | %85
[Q:1/4=166] !>![Aa]6 |!ff! z2[Q:1/4=156] !>![gbd'g']2[Q:1/4=146] !>![gbd'g']2 | %87
 !>![ac'a']2 z2 !fermata!z2 |] %88
V:2
 A,,2 [E,A,CE]2 [E,A,CE]2 | A,,2 [E,G,DE]2 [E,G,DE]2 | A,,2 [E,A,CE]2 [E,A,CE]2 | %3
 A,,2 [E,A,CE]2 [E,A,CE]2 | A,,2 [F,A,DF]2 [F,A,DF]2 | A,,2 [E,A,CE]2 [E,A,CE]2 | %6
 E,,2 [E,G,B,E]2 [E,G,B,E]2 | [D,,D,]2 [G,,G,]2 [D,,D,]2 | [C,,C,]2 [G,,G,]2 [C,,C,]2 | %9
 [=C,,=C,]2 [F,,F,]2 [C,,C,]2 | [B,,,B,,]2 [F,,F,]2 [B,,,B,,]2 |!ff! [E,E]2 !>![E,G,B,F]2 [E,E]2 | %12
 !>![E,A,CF]2 [E,E]2 !>![E,A,CF]2 | [E,E]2 !>![E,^A,CF]2 [E,E]2 | %14
 !>![E,B,DF]2 [E,E]2 !>![E,B,^DF]2 | [E,E]2 !>![E,DEG]2 [E,E]2 | A,,2 [E,A,CE]2 [E,A,CE]2 | %17
 A,,2 [E,G,DE]2 [E,G,DE]2 | A,,2 [E,A,CE]2 [E,A,CE]2 | A,,2 [E,A,CE]2 [E,A,CE]2 | %20
 A,,2 [F,A,DF]2 [F,A,DF]2 | A,,2 [E,A,CE]2 [E,A,CE]2 | E,,2 [E,G,B,E]2 [E,G,B,E]2 | %23
 [D,,D,]2 [G,,G,]2 [D,,D,]2 | [C,,C,]2 [G,,G,]2 [C,,C,]2 | [=C,,=C,]2 [F,,F,]2 [C,,C,]2 | %26
 [B,,,B,,]2 [F,,F,]2 [B,,,B,,]2 |!ff! [E,E]2 [E,,E,]2 [E,E]2 | [E,,E,]2 [E,E]2 [E,,E,]2 | %29
 [E,E]2 [E,,E,]2 [E,E]2 | [E,,E,]2 [E,E]2 [E,,E,]2 | E,2 [E,,E,]2 [A,,A,]2 || %32
!ped! !>![E,,C,]2!8va(! [CEGc]2 [CEGc]2!ped-up!!8va)! | %33
!ped! !>![E,,C,]2!8va(! [^B,FG]2 [B,FG]2!ped-up!!8va)! | !>![E,,C,]2!8va(! G2 C2 | G2 C2 G2!8va)! | %36
[K:bass]!ped! !>![E,,C,]2!8va(! [CEGc]2 [CEGc]2!ped-up!!8va)! | %37
!ped! !>![E,,C,]2!8va(! [^B,FG]2 [B,FG]2!ped-up!!8va)! | !>![E,,C,]2!8va(! G2 C2 | A2 C2 G2!8va)! | %40
!ped! !>![E,,C,]2!8va(! [CEGc]2 [CEGc]2!ped-up!!8va)! | %41
!ped! !>![E,,C,]2!8va(! [^B,FG]2 [B,FG]2!ped-up!!8va)! | !>![E,,C,]2!8va(! G2 C2 | G2 C2 G2!8va)! | %44
[K:bass]!ped! !>![E,,C,]2!8va(! [CEGc]2 [CEGc]2!ped-up!!8va)! | %45
!ped! !>![E,,C,]2!8va(! [^B,FG]2 [B,FG]2!ped-up!!8va)! | !>![E,,C,]2 [^A,,^A,]2 [^B,,^B,]2 | %47
 [C,,C,]2 [E,,C,E,]4 | A,,2 [E,A,CE]2 [E,A,CE]2 | A,,2 [E,G,DE]2 [E,G,DE]2 | %50
 A,,2 [E,A,CE]2 [E,A,CE]2 | A,,2 [E,A,CE]2 [E,A,CE]2 | A,,2 [F,A,DF]2 [F,A,DF]2 | %53
 A,,2 [E,A,CE]2 [E,A,CE]2 | E,,2 [E,G,B,E]2 [E,G,B,E]2 | [D,,D,]2 [G,,G,]2 [D,,D,]2 | %56
 [C,,C,]2 [G,,G,]2 [C,,C,]2 | [=C,,=C,]2 [F,,F,]2 [C,,C,]2 | [B,,,B,,]2 [F,,F,]2 [B,,,B,,]2 | %59
!ff! [E,E]2 !>![E,G,B,F]2 [E,E]2 | !>![E,A,CF]2 [E,E]2 !>![E,A,CF]2 | [E,E]2 !>![E,^A,CF]2 [E,E]2 | %62
 !>![E,B,DF]2 [E,E]2 !>![E,B,^DF]2 | [E,E]2 !>![E,DEG]2 [E,E]2 | A,,2 [E,A,CE]2 [E,A,CE]2 | %65
 A,,2 [E,G,DE]2 [E,G,DE]2 | A,,2 [E,A,CE]2 [E,A,CE]2 | A,,2 [E,A,CE]2 [E,A,CE]2 | %68
 A,,2 [F,A,DF]2 [F,A,DF]2 | A,,2 [E,A,CE]2 [E,A,CE]2 | E,,2 [E,G,B,E]2 [E,G,B,E]2 | %71
 [D,,D,]2 [G,,G,]2 [D,,D,]2 | [C,,C,]2 [G,,G,]2 [C,,C,]2 | [=C,,=C,]2 [F,,F,]2 [C,,C,]2 | %74
 [B,,,B,,]2 [F,,F,]2 [B,,,B,,]2 |!ff! [E,E]2 [E,,E,]2 [E,E]2 | [E,,E,]2 [E,E]2 [E,,E,]2 | %77
 [E,E]2 [E,,E,]2 [E,E]2 | [E,,E,]2 [E,E]2 [E,,E,]2 | E,2 [E,,E,]2 [A,,A,]2 | z6 | z6 | !>!E6 | %83
 !>!A,6 | z2 [A,,D,G,B,]2 [A,,D,G,B,]2 | z2 [A,,C,E,A,]2 [A,,C,E,A,]2 | %86
 z2 !>![E,,E,]2 !>![E,,E,]2 | !>![A,,C,]2 z2 !fermata!z2 |] %88
V:3
 z6 | z6 | z6 | z6 | z6 | z6 | z6 | z6 | z6 | z6 | z6 |[K:treble] z2 !>![GB]2 z2 | %12
 !>![Ac]2 z2 !>![Ac]2 | z2 !>![^Ac]2 z2 | !>![Bd]2 z2 !>![B^d]2 | z2 !>![de]2 z2 | z6 | z6 | z6 | %19
 z6 | z6 | z6 | z6 | z6 | z6 | z6 | z6 |[K:treble] z2 !>![G,B,FG]2 z2 | %28
 !>![A,CFA]2 z2 !>![A,CFA]2 | z2 !>![^A,CF^A]2 z2 | !>![B,DFB]2 z2 !>![B,^DFB]2 | %31
 z2 !>![DEd]2 !>![Ec]2 || z6 | z6 | z6 | z6 | z6 | z6 | z6 | z6 | z6 | z6 | z6 | z6 | z6 | z6 | %46
 z6 | z6 | z6 | z6 | z6 | z6 | z6 | z6 | z6 | z6 | z6 | z6 | z6 |[K:treble] z2 !>![GB]2 z2 | %60
 !>![Ac]2 z2 !>![Ac]2 | z2 !>![^Ac]2 z2 | !>![Bd]2 z2 !>![B^d]2 | z2 !>![de]2 z2 | z6 | z6 | z6 | %67
 z6 | z6 | z6 | z6 | z6 | z6 | z6 | z6 |[K:treble] z2 !>![G,B,FG]2 z2 | %76
 !>![A,CFA]2 z2 !>![A,CFA]2 | z2 !>![^A,CF^A]2 z2 | !>![B,DFB]2 z2 !>![B,^DFB]2 | %79
 z2 !>![DEd]2 !>![Ec]2 | z6 | z6 | z6 | z6 | z6 | z6 | z2 !>![GBd]2 !>![GBd]2 | %87
 !>![Ac]2 z2 !fermata!z2 |] %88
V:4
 x6 | x6 | x6 | x6 | x6 | x6 | x6 | x6 | x6 | x6 | x6 | x6 | x6 | x6 | x6 | x6 | x6 | x6 | x6 | %19
 x6 | x6 | x6 | x6 | x6 | x6 | x6 | x6 | x6 | x6 | x6 | x6 | x6 || x6 | x6 | x6 | x6 | x6 | x6 | %38
 x6 | x6 | x6 | x6 | x6 | x6 | x6 | x6 | x6 | x6 | x6 | x6 | x6 | x6 | x6 | x6 | x6 | x6 | x6 | %57
 x6 | x6 | x6 | x6 | x6 | x6 | x6 | x6 | x6 | x6 | x6 | x6 | x6 | x6 | x6 | x6 | x6 | x6 | x6 | %76
 x6 | x6 | x6 | x6 |!8va(! z2 [d'g'b'd'']2 [d'g'b'd'']2 | z2 [c'e'a'c'']2 [c'e'a'c'']2 | x6 | %83
 x6!8va)! | z2 [GB]2 [GB]2 | z2 [CEA]2 [CEA]2 | !>!E6 | x6 |] %88

